X:1
T:Gaudent in coelis - Victoria
T:James Gibb editions
T:#
%%score [ 1 2 3 4 ]
L:1/8
Q:1/4=240
M:none
K:F
V:1 treble nm="Soprano" snm="S"
V:2 treble nm="Alto" snm="A"
V:3 treble-8 nm="Tenor" snm="T"
V:4 bass nm="Bass" snm="B"
V:1
"^Gaudent in coelis" z16 | z16 | z16 | z16 |"^Tomás Luis de Victoria\n(1548-1611)" z16 | z8 F8 | %6
w: |||||Gau-|
 F4 G4 A8 | F4 B8 G4 | A8 F4 (G4- | G2 F2 F8 E4) | (F2 G2 A2 B2 c8- | c8) z8 | z16 | z16 | z16 | %15
w: dent in coe-|lis a- ni-|mae sanc- to\-||rum, * * * *|||||
 z16 | z16 | z4 F4 F8 | (G6 A2 B8) | B8 A4 G4 | A4 F8 G4- | G4 (A6 F2 B4- | B2 A2 G4) F4 A4 | %23
w: ||qui Chri-|sti * *|ves- ti- gi-|a sunt se\-|* cu\- * *|* * * ti, sunt|
 G4 (F8 E4) | F8 z8 | z4 A4 A8 | G4 A4 A8 | G8 E4 (A4- | A4 G4) A8 | z4 F4 G4 A4 | B8 A4 F4 | %31
w: se- cu\- *|ti:|et qui-|a pro e-|ius a- mo\-|* * re|san- gui- nem|su- um fu-|
 (A2 G2 G8 ^F4) | G4 B4 (A8 | G8) G8 | z4 G4 A8 | A8 z4 A4 | A8 G8 | E4 (A8 G4 | A8) G8 | %39
w: de\- * * *|runt, fu- de\-|* runt,|et qui-|a pro|e- ius|a- mo\- *|* re|
 z4 D4 E4 ^F4 | G8 =F4 E4 | (F6 E2 D4 C4 | D8 C8) | C4 F8 D4 | D8 z4 G4 | (G6 A2 B8) || %46
w: san- gui- nem|su- um fu-|de\- * * *||runt, i- de-|o cum|Chri\- * *|
[M:3/2] A8 z4 | G4 A4 G4 | F6 G2 A4 || G4 G4 B4 A4 | d6 c2 B4 A4 | z4 D4 G4 F4 | B6 A2 G4 F4 | %53
w: sto|ex- ul- tant|si- ne fi-|ne, ex- ul- tant|si- ne fi- ne,|ex- ul- tant|si- ne fi- ne,|
 c6 B2 A4 G4 |[Q:1/4=235] c6[Q:1/4=230] B2[Q:1/4=226] (A4[Q:1/4=221] G4- | %55
w: si- ne fi- ne,|si- ne fi\- *|
[Q:1/4=217] G2[Q:1/4=215] F2[Q:1/4=209] F8[Q:1/4=202] E4) |[Q:1/4=200] !fermata!F16 |] %57
w: |ne.|
V:2
 z16 | C8 C4 D4 | E8 C4 F4 | D4 E8 C4 | (F6 E2 D8) | C8 z4 D4 | D4 E4 F8 | D8 _E8 | C8 D4 D4 | %9
w: |Gau- dent in|coe- lis a-|ni- mae sanc-|to\- * *|rum, gau-|dent in coe-|lis a-|ni- mae sanc-|
 C16 | C8 z4 C4 | C8 (D6 E2 | F8 F8 | E4 D4 E4 C4- | C4 D8 (E4- | E2 C2 F6 E2 D4- | D4 C2 B,2 C8) | %17
w: to-|rum, qui|Chri- sti *|* ves-|ti- gi- a sunt|* se- cu\-|||
 D8 z4 D4 | D4 E4 F4 G4- | G2 F2 F8) E4 | F8 D8 | E8 (F4 D4- | D2 C2 C4) D4 F4 | D8 C8 | A,16 | %25
w: ti, qui|Chri- sti ves- ti\-|* * * gi-|a sunt|se- cu\- *|* * * ti, sunt|se- cu-|ti:|
 z4 C4 F8 | E4 F4 F8 | D4 E8 (F4- | F4 E2 D2 E8 | D8) C8 | z4 B,4 C4 D4 | _E8 D8- | D4 D4 (F6 E2 | %33
w: et qui-|a pro e-|ius a- mo\-||* re|san- gui- nem|su- um|* fu- de\- *|
 D2 C2 D4) E8 | z4 E4 F8 | F8 z4 F4 | F8 D4 E4- | E4 (F8 E2 D2) | E4 C4 D4 E4 | F8 E4 C4 | %40
w: * * * runt,|et qui-|a pro|e- ius a\-|* mo\- * *|re san- gui- nem|su- um fu-|
 (E2 D2 D8 ^C4) | D4 A,4 (B,4 C4 | B,6 A,2 G,2 F,2 G,4) | A,8 D8- | D4 =B,4 B,8 | C8 D8 || %46
w: de\- * * *|runt, fu- de\- *||runt, i\-|* de- o|cum Chri-|
[M:3/2] C8 z4 | C4 C4 C4 | C6 C2 C4 || C4 E4 F4 F4 | F16- | F8 D8- | D16 | E16- | E16 | C16- | %56
w: sto|ex- ul- tant|si- ne fi-|ne, ex- ul- tant|si\-|* ne||fi\-||ne.|
 !fermata!C16 |] %57
w: |
V:3
 F8 F4 G4 | A8 F4 B4 | G4 A8 F4 | (B4 A2 G2 A6 G2 | A2 B2 c8 =B4) | (c2 _B2 A2 G2 A4) d4 | %6
w: Gau- dent in|coe- lis a-|ni- mae sanc-|to\- * * * *||rum, * * * * a-|
 B8 c4 A4 | B8 G4 c4- | c4 A4 B4 B4 | (A4 G2 F2 G8) | F16 | z4 A4 A4 =B4 | c4 (d6 c2 c4- | %13
w: ni- mae sanc-|to- rum, a\-|* ni- mae sanc-|to\- * * *|rum,|qui Chri- sti|ves- ti\- * *|
 c4) =B4 c8 | A8 B8 | (c6 A2 d6 c2 | B12 A4) | B8 z4 B4 | B4 c4 d4 (_e4- | e2 d2 B4 c4) c4 | %20
w: * gi- a|sunt se-|cu\- * * *||ti, qui|Chri- sti ves- ti\-|* * * * gi-|
 (F2 G2 A2 F2 B8) | z8 F8 | G8 (A6 F2 | B6 A2 G8) | F4 c4 c8 | F8 z4 c4 | c8 d4 c4 | B8 c4 A4 | %28
w: a * * * *|sunt|se- cu\- *||ti: et qui-|a pro|e- ius a-|mo- re, a-|
 (d12 ^c4) | d8 z8 | z4 G4 A4 =B4 | c8 B4 A4 | (B6 c2 d2 c2 c4- | c4 =B4) c4 G4 | c8 c8 | %35
w: mo\- *|re|san- gui- nem|su- um fu-|de\- * * * *|* * runt, et|qui- a|
 z4 c4 c8 | d4 c4 B8 | c4 A4 d8 | c8 z8 | z4 F4 G4 A4 | B8 A8- | A4 F4 ((G4 A4 | G2 F2 F8 E4)) | %43
w: pro e-|ius a- mo-|re, a- mo-|re|san- gui- nem|su- um|* fu- de\- *||
 F16 | z4 G8 D4 | E4 E4 F8 ||[M:3/2] F8 z4 | E4 F4 C4 | F6 E2 F4 || C8 z4 F4 | B4 A4 d6 c2 | %51
w: runt,|i- de-|o cum Chri-|sto|ex- ul- tant|si- ne fi-|ne, ex-|ul- tent si- ne|
 B4 A4 z4 D4 | G4 F4 B6 A2 | G4 C4 c6 B2 | A4 G4 c6 B2 | (A4 G2 F2 G8) | !fermata!F16 |] %57
w: fi- ne, ex-|ul- tant si- ne|fi- ne, si- ne|fi- ne, si- ne|fi\- * * *|ne.|
V:4
 z16 | z16 | z16 | z16 | F,8 F,4 G,4 | A,8 F,4 B,4- | B,4 G,4 F,8 | (B,,8 _E,8) | (F,8 B,,8 | %9
w: ||||Gau- dent in|coe- lis a\-|* ni- mae|sanc\- *|to\- *|
 C,16) | F,,8 z8 | z4 F,4 F,4 G,4 | A,4 (B,6 A,2 F,4 | G,4) G,4 C,8 | F,8 G,8 | (A,6 F,2 B,6 A,2 | %16
w: |rum,|qui Chri- sti|ves- ti\- * *|* gi- a|sunt se-|cu\- * * *|
 G,8 F,8) | B,,16 | z16 | z16 | z8 B,,8 | C,8 (D,6 B,,2 | _E,8) D,4 D,4 | B,,8 C,8 | F,,16 | %25
w: |ti,|||sunt|se- cu\- *|* ti, sunt|se- cu-|ti:|
 z4 F,4 F,8 | C,4 F,4 F,8 | G,8 A,8 | B,8 A,8 | z4 D,4 E,4 F,4 | G,8 F,4 D,4 | (C,8 D,8) | %32
w: et qui-|a pro e-|ius a-|mo- re|san- gui- nem|su- um fu-|de\- *|
 G,,4 G,4 (F,8 | G,8) C,8 | z4 C,4 F,8 | F,8 z4 F,4 | F,8 G,8 | A,8 B,8 | A,4 A,,4 B,,4 C,4 | %39
w: runt, fu- de\-|* runt,|et qui-|a pro|e- ius|a- mo-|re san- gui- nem|
 D,8 C,4 A,,4 | (G,,8 A,,8) | D,8 z4 A,,4 | (B,,8 C,8) | F,,8 B,,8- | B,,4 G,,4 G,,8 | C,8 B,,8 || %46
w: su- um fu-|de\- *|runt, fu-|de\- *|runt, i\-|* de- o|cum Chri-|
[M:3/2] F,,8 z4 | C,4 F,4 E,4 | A,6 G,2 F,4 || E,8 D,8- | D,16 | D,8 B,,8- | B,,16 | C,16- | C,16 | %55
w: sto|ex- ul- tant|si- ne fi-|ne, si\-||* ne||fi\-||
 C,16 | !fermata!F,,16 |] %57
w: |ne.|

